!!!COM: Bach, Johann Sebastian
!!!CDT: 1685/3//-1750/7/28/
!!!OTL@@DE: Meinen Jesum lass ich nicht
!!!AGN: 4-Part Chorale
!!!SCT: BH 299
!!!SCT: BWV 380
**harm	**root	**kern	**kern	**kern	**kern
!	!	!bass	!tenor	!alto	!soprno
*	*Iorgan	*Iorgan	*Iorgan	*Iorgan	*Iorgan
*M4/4	*M4/4	*M4/4	*M4/4	*M4/4	*M4/4
*met(c)	*met(c)	*met(c)	*met(c)	*met(c)	*met(c)
*MM60	*MM60	*MM60	*MM60	*MM60	*MM60
*k[f#c#]	*k[f#c#]	*k[f#c#]	*k[f#c#]	*k[f#c#]	*k[f#c#]
*D:	*D:	*D:	*D:	*D:	*D:
=1-	=1-	=1-	=1-	=1-	=1-
I	4EE-	8D	4d	4f#	4a
.	.	8E	.	.	.
Ib	4EE-	8F#	4d	4f#	4a
.	.	8D	.	.	.
IV	4AA-	8G	4B	4d	4b
.	.	8F#	.	.	.
iib	4FF	8G	4e	4g	4b
.	.	8E	.	.	.
=2	=2	=2	=2	=2	=2
V7	4BB-	4A	8e	8g	4cc#
.	.	.	8d	8f#	.
V7	4BB-	4AA	8e	4g	8cc#
.	.	.	8c#	.	16dd
.	.	.	.	.	16ee
I;	2EE-;	2D;	2A;	2f#;	2dd;
=3	=3	=3	=3	=3	=3
V	4BB-	8AA	8c#	4a	4ee
.	.	8BB	8d	.	.
Vb	4BB-	8C#	8e	8a	4ee
.	.	8AA	8c#	8g	.
vi	4CC	8BB	8c#	4.f#	4dd
.	.	8C#	16B	.	.
.	.	.	16A#	.	.
vi	8CC	8D	4B	.	4dd
V7/V	8FF	8E	.	8g#	.
=4	=4	=4	=4	=4	=4
iii	4GG	8F#	4A	8a	4cc#
.	.	8E	.	8g#	.
I	8EE-	8D	4A	8f#	8b
vi7	8CC	8BB	.	8d	16cc#
.	.	.	.	.	16dd
V/V	4FF	4E	8A	4.e	2b
.	.	.	8F#	.	.
V/V	4FF	4EE	4G#	.	.
.	.	.	.	8d	.
=5	=5	=5	=5	=5	=5
V;	2BB-;	2AA;	2E;	2c#;	2a;
I	4EE-	8D	8F#	4d	4a
.	.	8E	8Gy	.	.
Ib	4EE-	8F#	8A	4d	4a
.	.	8D	8F#	.	.
=6	=6	=6	=6	=6	=6
IV	4AA-	8G	8G	4d	4b
.	.	8F#	8A	.	.
ii	4FF	8E	4B	4g	4b
.	.	8D	.	.	.
V7b	8BB-	8C#	8E	8g	4a
viio/ii	8EE	8D#	8F#	8f#	.
ii	4FF	4E	8G	4e	8g
.	.	.	8A	.	8f#
!!linebreak: 2
=7	=7	=7	=7	=7	=7
VI;	2CC;	2BB;	2B;	2d#;	2f#;
viiob/II	4EE	8F#	8A	8d#	4a
.	.	8E	8G	8e	.
V7b/II	4CC	8D#	4F#	8f#	4a
.	.	8BB	.	8d#	.
=8	=8	=8	=8	=8	=8
ii	4FF	8E	4G	4B	4g
.	.	8Dy	.	.	.
V7b	4BB-	8C#	4A	8e	4g
.	.	8AA	.	8c#	.
I	4EE-	8D	4A	4d	4f#
.	.	8F#	.	.	.
ii7b	8FF	8G	8B	4d	8e
ii7	8FF	8E	8G	.	16f#
.	.	.	.	.	16g
=9	=9	=9	=9	=9	=9
V	4BB-	4A	8A	4d	2e
.	.	.	8F#	.	.
V7	4BB-	4AA	4G	4c#	.
I;	2EE-;	2D;	2F#;	2A;	2d;
=10	=10	=10	=10	=10	=10
I	4EE-	8d	4d	4f#	4a
.	.	8c	.	.	.
vi7	4CC	8B	4d	4f#	4a
.	.	8A	.	.	.
IV	4AA-	8G	4d	4g	4b
.	.	8F#	.	.	.
ii	4FF	8E	4e	8g	4b
.	.	8D	.	8f#	.
=11	=11	=11	=11	=11	=11
viiob/vi	4BB	8C#	8A#	4e	4cc#
.	.	8BB	8B	.	.
V/vi	8GG	8AA#	8c#	4f#	8cc#
V/vi	8GG	8FF#	8A#	.	16dd
.	.	.	.	.	16ee
vi;	2CC;	2BB;	2B;	2f#;	2dd;
=12	=12	=12	=12	=12	=12
I	4EE-	8D	4F#	4d	4a
.	.	8C	.	.	.
vi7	4CC	8BB	4F#	4d	8a
.	.	8AA	.	.	16b
.	.	.	.	.	16cc
IV	8AA-	8GG	8G	8d	8b
V	8BB-	8AA	8E	8c#	8a
IVb	8AA-	8BB	8D	4d	8g
Ic	8EE-	8AA	8A	.	8f#
=13	=13	=13	=13	=13	=13
ii7b	4FF	4GG	4B	4d	8e
.	.	.	.	.	16f#
.	.	.	.	.	16g
V	4BB-	4AA	8A	4c#	4e
.	.	.	8G	.	.
I;	2EE-;	2D;	2F#;	2A;	2d;
==	==	==	==	==	==
*-	*-	*-	*-	*-	*-
!!chor2scor: -l 2 -s 0.6 -o %b.pmx
!!!YEC: Copyright 1994, David Huron
!!!YEC: Changes/Additions 2001 by Craig Stuart Sapp
!!!YEN: United States of America
!!!SMA: 371 Bach Chorales, edited by Ludwig Erk, C.F. Peters
!!!PDT: 1850, 1865
!!!ONB: Harmony and Root analysis done manually
